X:9929
T: Love at the Endings
C: Ed Reavy
M:C|
R:Reel
K:D
E:9
FE | DEFA BcdB | AF (3FEF AFEF | DEFA (3BcB AF |\
 (3GFE (3FED _BEEF | DEFA BcdB |*
E:8
 AF {G}(3FEF ABde | fgfe dfec |1 dBAF D3e :|2 dBAF D3g |\
fgfe defg | afbf afed | fgfe dfbf |*
E:9
afdf e2 de | fgfe dcdb | AF {G}(3FEF E2 DE |\
 FABc dfec |1 dBAF D3g :|2 dBAF D3e :|**


